X: 1
T: Mermaid's Bridal March, The
M: 9/8
L: 1/8
R: slip jig
K: Gmaj
|: ^c | dBG dBG A2 e | dBG dBG D2 e | dBG dBG A2 c | BB/A/G AGE D2 :|
f | gee edB d2 f | gee edB A2 f | gee edB d2 e | dBG AGE D2 f |
ge/e/e edB dd/e/f | g2 e edB [A2a2] ^c | dBG dB/A/G A2 c | B2 G A>GE D2 |]
